X: 291
M: 2/4
L: 1/8
K: G
|:\
|:\
"2F"A>DD>A | B>GG>B | A>DD>A | !+!B2A2 |\
d>Bc>d | e>fg>c | B2!+!A2 | G2G2 :|
K:Gm
|:\
"2F"B>cd>e | d>=e^f>g | d>cB>A | !+!B2G2 |\
|:\
"2 F"D>=E^F>G | D>=E^F>G | A>Bc>d | !+!B2A2 |\
d>cB>A | G>DG>c | B2!+!A2 | G4 :|

